images/short/quick_m_icon_qustion.svg

<svg width="41" height="42" viewBox="0 0 41 42" fill="none" xmlns="http://www.w3.org/2000/svg">
<path fill-rule="evenodd" clip-rule="evenodd" d="M4.44292 37.4867L6.70344 31L10.4807 32.3163L9.66306 34.6624L12.3604 33.5864L13.8426 37.3016L7.07263 40.0025L3 41.6273L4.44292 37.4867Z" fill="#595959"/>
<path d="M20.9593 38.0814C30.9229 38.0814 39 30.0043 39 20.0407C39 10.0771 30.9229 2 20.9593 2C10.9957 2 2.91858 10.0771 2.91858 20.0407C2.91858 30.0043 10.9957 38.0814 20.9593 38.0814Z" fill="white" stroke="#595959" stroke-width="4"/>
<path d="M19.1128 24.4357V24.1339C19.1187 23.0981 19.2104 22.2725 19.388 21.657C19.5715 21.0414 19.8378 20.5443 20.187 20.1655C20.5362 19.7867 20.9564 19.4434 21.4476 19.1357C21.8146 18.8989 22.1431 18.6533 22.4331 18.3988C22.7231 18.1443 22.9539 17.8632 23.1256 17.5554C23.2972 17.2417 23.383 16.8925 23.383 16.5078C23.383 16.0994 23.2854 15.7414 23.09 15.4336C22.8947 15.1258 22.6314 14.8891 22.2999 14.7234C21.9744 14.5576 21.6134 14.4748 21.2168 14.4748C20.8321 14.4748 20.4681 14.5606 20.1248 14.7322C19.7816 14.898 19.5004 15.1465 19.2814 15.478C19.0625 15.8035 18.9441 16.2089 18.9263 16.6942H15.3042C15.3338 15.5105 15.6179 14.534 16.1564 13.7646C16.695 12.9892 17.4082 12.4122 18.296 12.0334C19.1838 11.6487 20.1633 11.4563 21.2346 11.4563C22.4124 11.4563 23.454 11.6516 24.3596 12.0423C25.2651 12.427 25.9753 12.9863 26.4903 13.7202C27.0052 14.4541 27.2626 15.3389 27.2626 16.3746C27.2626 17.0671 27.1472 17.6826 26.9164 18.2212C26.6915 18.7539 26.3748 19.2274 25.9665 19.6417C25.5581 20.0501 25.0757 20.42 24.5194 20.7514C24.0518 21.0296 23.6671 21.3196 23.3653 21.6214C23.0693 21.9233 22.8474 22.2725 22.6994 22.669C22.5574 23.0656 22.4834 23.5539 22.4775 24.1339V24.4357H19.1128ZM20.8706 30.1175C20.2787 30.1175 19.7727 29.9104 19.3525 29.4961C18.9382 29.0759 18.734 28.5728 18.7399 27.9869C18.734 27.4068 18.9382 26.9097 19.3525 26.4954C19.7727 26.0811 20.2787 25.8739 20.8706 25.8739C21.4328 25.8739 21.927 26.0811 22.3532 26.4954C22.7793 26.9097 22.9953 27.4068 23.0013 27.9869C22.9953 28.3775 22.8918 28.7356 22.6905 29.0611C22.4952 29.3807 22.2378 29.6381 21.9182 29.8335C21.5986 30.0228 21.2494 30.1175 20.8706 30.1175Z" fill="#595959"/>
</svg>

<svg xmlns="http://www.w3.org/2000/svg" width="41" height="42" fill="none"><path fill="#595959" fill-rule="evenodd" d="M4.443 37.487 6.703 31l3.778 1.316-.818 2.346 2.697-1.076 1.483 3.716-6.77 2.7L3 41.627l1.443-4.14Z" clip-rule="evenodd"/><path fill="#fff" stroke="#595959" stroke-width="4" d="M20.96 38.081c9.963 0 18.04-8.077 18.04-18.04C39 10.077 30.923 2 20.96 2 10.995 2 2.918 10.077 2.918 20.04c0 9.964 8.077 18.041 18.04 18.041Z"/><path fill="#595959" d="M19.113 24.436v-.302c.006-1.036.097-1.861.275-2.477.183-.616.45-1.113.799-1.491.35-.38.77-.723 1.26-1.03.368-.237.696-.483.986-.737.29-.255.52-.536.693-.844.171-.313.257-.663.257-1.047a1.96 1.96 0 0 0-.293-1.074 1.95 1.95 0 0 0-.79-.71 2.351 2.351 0 0 0-1.083-.25 2.41 2.41 0 0 0-1.092.258 2.085 2.085 0 0 0-.844.746c-.218.325-.337.73-.355 1.216h-3.622c.03-1.183.314-2.16.852-2.93a4.881 4.881 0 0 1 2.14-1.73c.888-.385 1.867-.578 2.939-.578 1.177 0 2.219.196 3.125.586.905.385 1.615.944 2.13 1.678.515.734.773 1.619.773 2.655 0 .692-.116 1.308-.347 1.846a4.5 4.5 0 0 1-.95 1.42c-.408.41-.89.779-1.447 1.11a5.869 5.869 0 0 0-1.154.87 2.957 2.957 0 0 0-.666 1.048c-.142.397-.216.885-.222 1.465v.302h-3.364Zm1.758 5.681a2.084 2.084 0 0 1-1.518-.62 2.043 2.043 0 0 1-.613-1.51 2.003 2.003 0 0 1 .613-1.492c.42-.414.926-.621 1.518-.621.562 0 1.056.207 1.482.621.426.415.642.912.648 1.492-.006.39-.11.749-.31 1.074-.196.32-.453.577-.773.773-.32.189-.669.284-1.047.284Z"/></svg>
